X:83
T:83 Tekili
C:Welch MS
N:From Sussex Arch Soc. Other near identical vers from CSH and John Clare.
N:JC has grace note F# on strong Es in bars 11,12.
N:This version in STB slightly different from that I got from the MS
I:abc2nwc
M:6/8
L:1/8
K:D
A|d2d dcd|B2d A3|ABc def|g2e c2A|d2d dcd|B2d A3|ABc def|gec d2:|
A|d2e f2f|fge e2d|e2d e2d|e2d e2f|d2e f2f|fgf e2d|e2d e2f|d3d2:|


